X:1
T: Lady L. Ramsay
C:Nathaniel Gow
R:Reel
Q: 232
K:Bb
M:4/4
L:1/8
|:e|d2 fd ec ce|d2 fd ge fe|d2 fd ec ge|dB cA B2 Be|
d2 fd ec ce|d2 fd ge fe|d2 fd ec ge|dB cA B2 BB|
AB GB FB DB|FB dB cC CB|AB GB FB dB|FB Ac B2 Bd|
AB GB FB DB|FB dB cC CE|DF BF GA Bg|fd ec B2 B:|
